X:21122
T: Mr. Hamilton of Pencaitland
C: McFadyen
R: strathspey
B: RSCDS 21-12(II)
Z: 1997 by John Chambers <jc:trillian.mit.edu>
M: C
L: 1/8
%--------------------
K: C
E/D/ \
| "C"Cc d/c/B/A/ "Am"A/G/F/E/ [c2E2] | "C"Cc cB/A/ "G7"B>d d>e \
| "Dm"f>e d>B "G"cB AG | "F"A/B/c/B/ "G7"d/c/B/A/ "C"Gcc :|
|| e/d/ \
| "C"c>g e/f/g/a/ gc a/g/f/e/ | "F"fa/g/ "Dm"f/e/d/c/ "G"Bd de/d/ \
| "C"c>d e>f ge "F"fa | "C"ge "Dm"f/e/d/c/ "C"Gc ce/d/ |
| "C"cg e/f/g/a/ gc a/g/f/e/ | "F"fa/g/ "Dm"f/e/d/c/ "G"Bd dg/f/ \
| "C"e>d c>A GE FG | "Dm"A/B/c/B/ "G7"d/c/B/A/ "C"G[cE][cE] |]
